frontend/public/assets/material-icons/http.svg

<svg xmlns="http://www.w3.org/2000/svg" viewBox="0 0 32 32">
  <path d="M16,2A14,14,0,1,0,30,16,14,14,0,0,0,16,2ZM27.29987,12H21.66119a22.46223,22.46223,0,0,0-2.70514-7.61646A12.02948,12.02948,0,0,1,27.29987,12ZM20,16c0,.693-.03674,1.35651-.09448,2h-7.811C12.03674,17.35651,12,16.693,12,16c0-.69293.03674-1.35651.09448-2h7.811C19.96326,14.64349,20,15.30707,20,16ZM16,28c-.11487,0-.2262-.014-.34033-.01727A20.35656,20.35656,0,0,1,12.36774,20h7.26452a20.35656,20.35656,0,0,1-3.29193,7.98273C16.2262,27.986,16.11487,28,16,28ZM12.36774,12a20.357,20.357,0,0,1,3.29193-7.98273C15.7738,4.014,15.88513,4,16,4s.2262.014.34033.01727A20.357,20.357,0,0,1,19.63226,12Zm.683-7.61816A22.37655,22.37655,0,0,0,10.339,12H4.70013A12.0296,12.0296,0,0,1,13.05072,4.38184ZM4.18066,14h5.91047C10.03888,14.64685,10,15.30707,10,16s.03888,1.35315.09113,2H4.18066a11.16085,11.16085,0,0,1,0-4Zm.51947,6H10.339a22.37655,22.37655,0,0,0,2.71173,7.61816A12.0296,12.0296,0,0,1,4.70013,20Zm14.25592,7.61646A22.46223,22.46223,0,0,0,21.66119,20h5.63868A12.02948,12.02948,0,0,1,18.95605,27.61646ZM27.81934,18h-5.9104C21.96112,17.35315,22,16.69293,22,16s-.03888-1.35315-.09106-2h5.9104a11.16085,11.16085,0,0,1,0,4Z" style="fill: #e53935"/>
</svg>

<svg xmlns="http://www.w3.org/2000/svg" viewBox="0 0 32 32"><path fill="#e53935" d="M16 2a14 14 0 1 0 14 14A14 14 0 0 0 16 2m11.3 10h-5.64a22.5 22.5 0 0 0-2.705-7.616A12.03 12.03 0 0 1 27.3 12M20 16c0 .693-.037 1.357-.094 2h-7.811A22 22 0 0 1 12 16c0-.693.037-1.357.094-2h7.811c.058.643.095 1.307.095 2m-4 12c-.115 0-.226-.014-.34-.017A20.4 20.4 0 0 1 12.368 20h7.264a20.4 20.4 0 0 1-3.292 7.983c-.114.003-.225.017-.34.017m-3.632-16a20.4 20.4 0 0 1 3.292-7.983c.114-.003.225-.017.34-.017s.226.014.34.017A20.4 20.4 0 0 1 19.632 12Zm.683-7.618A22.4 22.4 0 0 0 10.339 12H4.7a12.03 12.03 0 0 1 8.35-7.618ZM4.18 14h5.91c-.052.647-.091 1.307-.091 2s.039 1.353.091 2H4.18a11.2 11.2 0 0 1 0-4m.52 6h5.638a22.4 22.4 0 0 0 2.712 7.618A12.03 12.03 0 0 1 4.7 20m14.255 7.616A22.5 22.5 0 0 0 21.661 20H27.3a12.03 12.03 0 0 1-8.344 7.616ZM27.819 18h-5.91c.052-.647.091-1.307.091-2s-.039-1.353-.091-2h5.91a11.2 11.2 0 0 1 0 4"/></svg>
